.local/share/icons/Gruvbox-Plus-Dark/emblems/48/emblem-unlocked.svg

<svg xmlns="http://www.w3.org/2000/svg" width="48" height="48" version="1.1" viewBox="0 0 48 48">
 <circle style="fill:#282828" cx="24" cy="24" r="20"/>
 <path style="fill:#ebdbb2" d="M 24 12 C 20.279268 12 17.427462 13.734215 17.046875 18 L 20.087891 18 C 20.487569 15.775525 22.241985 15 24 15 C 26.000001 15 28 16 28 19 L 28 22 L 24 22 L 20 22 L 17 22 L 15.666016 22 C 14.742683 22 14 22.749505 14 23.699219 L 14 34.285156 C 14 35.23487 14.742683 36 15.666016 36 L 32.333984 36 C 33.257317 36 34 35.23487 34 34.285156 L 34 23.699219 C 34 22.749505 33.257317 22 32.333984 22 L 31 22 L 31 19 C 31 14.000012 28.000001 12 24 12 z"/>
</svg>

<svg width="48" height="48" version="1.1" xmlns="http://www.w3.org/2000/svg">
  <circle cx="24" cy="24" r="20" fill="#504945"/>
  <path d="m24 12c-3.7213 0-6.5752 1.7327-6.9551 6h3.041c0.3992-2.2255 2.1557-3 3.9141-3 2 0 4 1 4 4v3h-6-2-3-1-0.33398c-0.92333 0-1.666 0.7495-1.666 1.6992v10.586c0 0.94971 0.74268 1.7148 1.666 1.7148h16.668c0.92333 0 1.666-0.76513 1.666-1.7148v-10.586c0-0.94971-0.74268-1.6992-1.666-1.6992h-1.334v-3c0-5-3-7-7-7z" fill="#ebdbb2"/>
</svg>
